X: 5
T: We Are Coming
C: Teton Sioux band 1911-1914
N: Derived from sioux005.krn
O: South Dakota, U.S.A.
N: Teton Sioux Music by Frances Densmore, 1918
Z: transcribed to **kern format by Craig Sapp
L: 1/4
M: 2/4
Q: 1/4=58
K: D clef=bass
%%linebreak <none>
F/ F/F [I:setbarnb 2]| 
FE | 
DB, | 
D/ D/D | 
FE | 
DB, | 
B,/ D/B, | 
B,B,/ D/ | 
B,B, | 
B,B,/ B,/ | 
D/ D/D | 
FE | 
DB, | 
B,/ F,/F, ||  
[M:3/4]B,F,E, | 
D,D,/ B,,/B,, ||  
[M:2/4]D,/ D,/D, ||  
[M:3/4]F,E,D, ||  
[M:2/4]B,,3/B,,/ ||  
[M:3/4]B,,2-B,,/ B,,/ ||  
[M:2/4]B,,B,,- | 
B,,2 | 
B,3/D/ | 
D3/D/ | 
F3/E/ ||  
[M:3/4]E/< D/-DB, | 
F,/ F,<(F,E,/) | 
F,F,3/F,/ | 
B,F,/ F,/E, ||  
[M:2/4]D,3/B,,/ | 
D,/ D,/D, ||  
[M:3/4]F,E,D, ||  
[M:2/4]B,,3/B,,/ | 
B,,2 |]  



